!!!OTL: SCHLAF HERZENSSOEHNCHEN
!!!ARE: Europa, Mitteleuropa, Deutschland
!!!SCT: B0620
!!!YEM: Copyright 1995, estate of Helmut Schaffrath.
**kern
*ICvox
*Ivox
*M3/8
*k[]
*C:
=1
{8g
8e
8f
=2
8.g
16ee
8cc
=3
8b
8a
8b
=4
4.cc}
=5
{8b
8b
8b
=6
8cc
8b
8ee
=7
8.dd
16cc
8a
=8
4.g}
=9
{8g
8g
8g
=10
8a
8g
8g
=11
8g
8g
16g
16cc
=12
4.cc}
=13
{8b
8a
8b
=14
8cc
8e
8a
=15
8.g
16f
8d
=16
4c
8r}
==
!!!AGN: Kinder -, Wiegen - Lied
!!!ONB: ESAC (Essen Associative Code) Database: BOEHME
!!!AMT: simple triple
!!!AIN: vox
!!!EED: Helmut Schaffrath
!!!EEV: 1.0
*-
